images/icons/mir.svg

<svg width="32" height="21" viewBox="0 0 32 21" fill="none" xmlns="http://www.w3.org/2000/svg">
<g clip-path="url(#clip0_340_929)">
<path d="M23.0861 9.40332V14.4376H25.8459V11.4543H28.9737C30.2892 11.445 31.4069 10.592 31.8301 9.40332H23.0861Z" fill="#A6A6A6"/>
<path d="M22.7181 5.25464C22.8791 7.31029 24.8017 8.9371 27.1476 8.9371C27.1568 8.9371 31.945 8.9371 31.945 8.9371C31.9818 8.75064 32.0002 8.55487 32.0002 8.35443C32.0002 6.64838 30.6433 5.26862 28.9645 5.25464H22.7181Z" fill="#A6A6A6"/>
<path d="M18.6332 8.88582C18.6654 8.82989 18.716 8.79726 18.7804 8.79726C18.8724 8.79726 18.9414 8.87184 18.946 8.9604V14.3909H21.7058V5.25464H18.946C18.5964 5.26862 18.2009 5.525 18.0537 5.84663L15.8596 10.6198C15.855 10.6385 15.8458 10.6571 15.8366 10.6758C15.8044 10.7224 15.7492 10.755 15.6848 10.755C15.5836 10.755 15.5008 10.6711 15.5008 10.5686V5.25464H12.741V14.3909H15.5008C15.8458 14.3722 16.2322 14.1158 16.3794 13.7989L18.6332 8.89981C18.6286 8.89514 18.6332 8.89048 18.6332 8.88582Z" fill="#A6A6A6"/>
<path d="M8.33003 9.04433L6.71554 14.3909H4.72848L3.11859 9.03967C3.10479 8.95576 3.03119 8.89051 2.9392 8.89051C2.838 8.89051 2.75981 8.97441 2.75981 9.0723V14.3862H0V5.25H2.36884H3.07259C3.57855 5.25 4.11212 5.65088 4.25931 6.14032L5.60242 10.5919C5.67141 10.8156 5.7772 10.811 5.8462 10.5919L7.18931 6.14032C7.3365 5.64621 7.87006 5.25 8.37602 5.25H9.07978H11.4486V14.3862H8.6888V9.0723C8.6888 9.0723 8.6888 9.0723 8.6888 9.06764C8.6888 8.96509 8.60601 8.88584 8.50941 8.88584C8.41742 8.89051 8.34383 8.95576 8.33003 9.04433Z" fill="#A6A6A6"/>
</g>
<defs>
<clipPath id="clip0_340_929">
<rect width="32" height="21" fill="white"/>
</clipPath>
</defs>
</svg>

<svg xmlns="http://www.w3.org/2000/svg" width="32" height="21" fill="none"><g fill="#A6A6A6" clip-path="url(#a)"><path d="M23.086 9.403v5.035h2.76v-2.984h3.128c1.315-.009 2.433-.862 2.856-2.05zM22.718 5.255c.161 2.055 2.084 3.682 4.43 3.682h4.797q.055-.28.055-.583c0-1.706-1.357-3.085-3.035-3.1zM18.633 8.886a.17.17 0 0 1 .147-.089c.092 0 .161.075.166.163v5.43h2.76V5.256h-2.76c-.35.014-.745.27-.892.592L15.86 10.62q-.009.028-.023.056a.184.184 0 0 1-.336-.107V5.255h-2.76v9.136h2.76c.345-.019.731-.275.878-.592l2.254-4.9c-.004-.004 0-.009 0-.013M8.33 9.044l-1.614 5.347H4.728L3.118 9.04a.18.18 0 0 0-.359.033v5.313H0V5.25h3.0730000000000004c.506 0 1.04.4 1.186.89l1.343 4.452c.07.224.175.219.244 0L7.19 6.14c.147-.494.681-.89 1.187-.89h3.0730000000000004v9.136h-2.76V9.068a.18.18 0 0 0-.18-.182.19.19 0 0 0-.179.158"/></g><defs><clipPath id="a"><path fill="#fff" d="M0 0h32v21H0z"/></clipPath></defs></svg>
